symbols/web/elevator/materialsymbolssharp/elevator_wght200_48px.svg

<svg xmlns="http://www.w3.org/2000/svg" height="48" width="48"><path d="M15.75 35.25h4v-7.9h2V19h-8v8.35h2Zm2-17.95q.95 0 1.625-.675t.675-1.575q0-.95-.675-1.6-.675-.65-1.625-.65-.9 0-1.575.65-.675.65-.675 1.6 0 .9.675 1.575.675.675 1.575.675Zm9.6 3.45h6.35l-3.2-5.1Zm3.15 11.6 3.2-5.1h-6.35ZM8 40V8h32v32Zm1.55-1.55h28.9V9.55H9.55Zm0 0V9.55v28.9Z"/></svg>

<svg xmlns="http://www.w3.org/2000/svg" height="48" width="48"><path d="M15.75 35.25H19.75V27.35H21.75V19H13.75V27.35H15.75ZM17.75 17.3Q18.7 17.3 19.375 16.625Q20.05 15.95 20.05 15.05Q20.05 14.1 19.375 13.45Q18.7 12.8 17.75 12.8Q16.85 12.8 16.175 13.45Q15.5 14.1 15.5 15.05Q15.5 15.95 16.175 16.625Q16.85 17.3 17.75 17.3ZM27.35 20.75H33.7L30.5 15.65ZM30.5 32.35 33.7 27.25H27.35ZM8 40V8H40V40ZM9.55 38.45H38.45V9.55H9.55ZM9.55 38.45V9.55V38.45Z"/></svg>
